resources/haticons/SVG/apachecordova.svg

<!-- Generated by IcoMoon.io -->
<svg version="1.1" xmlns="http://www.w3.org/2000/svg" width="24" height="24" viewBox="0 0 24 24">
<title>apachecordova</title>
<path fill="#e8e8e8" d="M18.545 0.545h-13.090l-5.455 8.728 2.182 14.182h3.886l-0.273-3.273h1.909l0.273 3.273h8.045l0.273-3.273h1.909l-0.273 3.273h3.886l2.183-14.182zM18.545 18h-13.090l-1.091-8.727 2.182-4.364h3.506l-0.234 1.636h4.364l-0.234-1.636h3.506l2.182 4.364zM15.545 11.045c0.301 0 0.545 0.908 0.545 2.029s-0.244 2.029-0.545 2.029-0.545-0.908-0.545-2.029c0-1.12 0.244-2.029 0.545-2.029zM8.659 11.215c0.301 0 0.545 0.908 0.545 2.029s-0.244 2.029-0.545 2.029-0.545-0.908-0.545-2.029 0.244-2.029 0.545-2.029z"></path>
</svg>

<svg xmlns="http://www.w3.org/2000/svg" width="24" height="24"><path fill="#e8e8e8" d="M18.545.545H5.455L0 9.273l2.182 14.182h3.886l-.273-3.273h1.909l.273 3.273h8.045l.273-3.273h1.909l-.273 3.273h3.886L24 9.273zm0 17.455H5.455L4.364 9.273l2.182-4.364h3.506l-.234 1.636h4.364l-.234-1.636h3.506l2.182 4.364zm-3-6.955c.301 0 .545.908.545 2.029s-.244 2.029-.545 2.029S15 14.195 15 13.074c0-1.12.244-2.029.545-2.029zm-6.886.17c.301 0 .545.908.545 2.029s-.244 2.029-.545 2.029-.545-.908-.545-2.029.244-2.029.545-2.029z"/></svg>
